X: 100268
T: CORNET HORNPIPE
C: By W.P.Robertson, Riccarton, Kilmarnock
R: hornpipe
B: K\"ohler's Violin Repository, v.3, 1885 p.202 #1
F: http://www.archive.org/details/klersviolinrepos03rugg
Z: 2012 John Chambers <jc:trillian.mit.edu>
N: There's a final repeat symbol, but no others.
M: C|
L: 1/8
K: F
uC |\
F>EF>A ((3cdc) Az | G>FG>B ((3ded) Bz | A>GA>c ((3fgf) ez | ((3ded) cz ((3BcB) (AG) |
F>EF>A ((3cdc) Az | G>FG>B ((3ded) Bz | A>GA>c (3fgf (3cde | (3fAB (3cde f3 ||
uc |\
c>af>c B>ge>B | A>fc>A {e}d2 c2 | {c}B>AB>c {e}d>cd>e | (3fgf (3cde (3fed (3cBA |
c>af>c B>ge>B | A>fc>A {e}d2 c2 | {c}B>AB>c d>cd>e | (3fgf (3cde [f3A3] :|

%%sep 2 1 500

